img/icons/telegram-icon.svg

<svg width="15" height="15" viewBox="0 0 15 15" fill="none" xmlns="http://www.w3.org/2000/svg">
<path d="M7.5 15C11.6421 15 15 11.6421 15 7.5C15 3.35786 11.6421 0 7.5 0C3.35786 0 0 3.35786 0 7.5C0 11.6421 3.35786 15 7.5 15Z" fill="url(#paint0_linear_3174_2397)"/>
<path fill-rule="evenodd" clip-rule="evenodd" d="M3.39587 7.42085C5.58227 6.46826 7.04023 5.84025 7.76969 5.53685C9.85252 4.67055 10.2853 4.52005 10.5674 4.51507C10.6294 4.51398 10.7682 4.52936 10.858 4.60228C10.9913 4.71045 10.9921 4.94523 10.9773 5.10062C10.8644 6.28656 10.376 9.16448 10.1276 10.4927C10.0224 11.0548 9.8154 11.2432 9.61501 11.2617C9.17948 11.3017 8.84875 10.9738 8.42691 10.6973C7.76682 10.2646 7.3939 9.99525 6.75315 9.57303C6.01267 9.08506 6.4927 8.81687 6.91469 8.37856C7.02514 8.26387 8.94411 6.51839 8.98126 6.36004C8.98592 6.34023 8.99023 6.2664 8.94637 6.22744C8.90251 6.18848 8.83779 6.20178 8.79109 6.21238C8.72488 6.22741 7.67037 6.92441 5.62756 8.30336C5.32823 8.5089 5.05712 8.60904 4.81422 8.6038C4.54642 8.59803 4.03132 8.45239 3.64838 8.32791C3.17869 8.17524 2.80539 8.0945 2.83791 7.83522C2.85485 7.70013 3.04082 7.56203 3.39587 7.42085Z" fill="white"/>
<defs>
<linearGradient id="paint0_linear_3174_2397" x1="7.5" y1="0" x2="7.5" y2="14.8828" gradientUnits="userSpaceOnUse">
<stop stop-color="#2AABEE"/>
<stop offset="1" stop-color="#229ED9"/>
</linearGradient>
</defs>
</svg>

<svg width="15" height="15" fill="none" xmlns="http://www.w3.org/2000/svg"><path d="M7.5 15a7.5 7.5 0 100-15 7.5 7.5 0 000 15z" fill="url(#paint0_linear_3174_2397)"/><path fill-rule="evenodd" clip-rule="evenodd" d="M3.396 7.42C5.582 6.469 7.04 5.84 7.77 5.538c2.083-.866 2.515-1.017 2.797-1.022.062-.001.201.014.291.087.133.108.134.343.12.499-.114 1.186-.602 4.063-.85 5.392-.106.562-.313.75-.513.769-.436.04-.766-.288-1.188-.565-.66-.432-1.033-.702-1.674-1.124-.74-.488-.26-.756.162-1.194.11-.115 2.03-1.86 2.066-2.019.005-.02.01-.094-.035-.133-.043-.039-.108-.025-.155-.015-.066.015-1.12.712-3.163 2.091-.3.206-.57.306-.814.3-.268-.005-.783-.15-1.166-.275-.47-.153-.843-.233-.81-.493.017-.135.203-.273.558-.414z" fill="#fff"/><defs><linearGradient id="paint0_linear_3174_2397" x1="7.5" y1="0" x2="7.5" y2="14.883" gradientUnits="userSpaceOnUse"><stop stop-color="#2AABEE"/><stop offset="1" stop-color="#229ED9"/></linearGradient></defs></svg>
